!! 00000] TT[WS
!!!OTL: Mai gaoyao
!!!ARE: Asia, China,ÿShanxi
!! Ethnic Group: Han
!! WI, 228 (1)
!!!SCT: J0272
!!!YEM: Copyright 1995, estate of Helmut Schaffrath.
**kern
*ICvox
*Ivox
*M2/4
*k[f#]
*G:
{8.dd
16ee
8dd
16b
16a
=1
8.dd
16ee
8dd
16b
16a
=2
8.dd
16ee
8dd
16b
16a
=3
16b
16dd
16b
16a
4g}
=4
{16dd
8b
16dd
8g
8g
=5
8dd
8ee
8dd
16b
16a
=6
16dd
8b
16dd
8dd
16b
16a
=7
16b
16dd
16b
16a
4g}
==
!!!AGN: Xiaodiao. Maimai
!!!ONB: ESAC (Essen Associative Code) Database: CHINA
!!!AMT: simple duple
!!!AIN: vox
!!!EED: Helmut Schaffrath
!!!EEV: 1.0
*-
